packages/experience-docs/source/content/images/rocket.svg

<?xml version="1.0" encoding="UTF-8" standalone="no"?>
<svg width="512px" height="512px" viewBox="0 0 512 512" version="1.1" xmlns="http://www.w3.org/2000/svg" xmlns:xlink="http://www.w3.org/1999/xlink">
    <!-- Generator: Sketch 42 (36781) - http://www.bohemiancoding.com/sketch -->
    <title>Illustration Copy 2</title>
    <desc>Created with Sketch.</desc>
    <defs>
        <path d="M47.8023653,272.642019 C-14.4910838,210.000058 -14.4910838,109.053684 47.8023653,46.9055646 C110.057854,-15.5844452 210.982605,-15.5844452 273.238093,46.6016619 C335.835228,109.053684 335.835228,209.746806 273.238093,272.642019 C210.982605,334.777476 110.057854,334.777476 47.8023653,272.642019 Z" id="path-1"></path>
        <mask id="mask-2" maskContentUnits="userSpaceOnUse" maskUnits="objectBoundingBox" x="0" y="0" width="319.103666" height="319.243612" fill="white">
            <use xlink:href="#path-1"></use>
        </mask>
        <path d="M183.277272,277.926909 C188.760023,268.417068 193.756244,258.78673 198.220489,249.052356 C205.902609,260.377396 213.524122,274.021941 216.431145,281.963058 C202.24402,307.787554 183.613152,335.150257 169.637571,350.556294 C167.629952,340.406688 163.233457,326.553943 158.335443,315.501892 C166.854806,304.304955 175.3226,291.7243 183.277272,277.926909 Z" id="path-3"></path>
        <mask id="mask-4" maskContentUnits="userSpaceOnUse" maskUnits="objectBoundingBox" x="0" y="0" width="58.0957019" height="101.503938" fill="white">
            <use xlink:href="#path-3"></use>
        </mask>
        <path d="M92.4489645,222.129131 C92.5732508,221.380814 92.7006511,220.633178 92.8311768,219.88623 C81.1961078,225.183316 68.1388442,232.552687 61.7639643,237.617634 C58.7919312,264.952775 58.6465856,296.549023 61.2925517,317 C67.9004218,310.903417 78.6892159,302.976855 89.7033954,296.177996 C89.7727328,296.135195 89.8436014,296.096969 89.9156494,296.063232 C87.4297936,274.180228 88.0046725,249.529166 92.2564897,223.302029 C92.319815,222.91141 92.3839724,222.520443 92.4489645,222.129131 Z" id="path-5"></path>
        <mask id="mask-6" maskContentUnits="userSpaceOnUse" maskUnits="objectBoundingBox" x="0" y="0" width="33.4160169" height="97.1137695" fill="white">
            <use xlink:href="#path-5"></use>
        </mask>
        <path d="M125.06568,328.340698 C130.428442,330.2948 135.743857,332.460085 140.886777,334.762606 C143.554199,335.830811 145.350229,334.161509 145.799805,333.668701 C146.543076,332.853955 153.653271,324.641269 156.958369,320.415553 C166.39315,308.352762 175.825093,294.573378 184.628566,279.30374 C217.294721,222.644243 232.690216,161.707356 221.203582,99.974803 C218.603092,86.0985844 212.658047,71.1824972 204.014246,55.377907 C203.694071,54.7924887 203.134043,54.4219693 202.523286,54.3217198 C202.086952,54.1506347 201.590654,54.1251943 201.110948,54.2839336 C189.070043,58.2683804 178.55444,66.6291463 162.993483,82.4081367 C121.78238,124.304746 98.7031716,172.386106 90.1890432,223.648927 C84.3350401,258.895366 85.8768693,291.138821 91.27583,318.068822 C91.4752968,319.063762 92.3521481,319.74991 93.3297304,319.743056 C100.627221,320.918847 108.348077,322.84384 116.11506,325.295139 C115.974427,325.835022 115.843071,326.340528 115.754963,326.669586 C115.557055,327.40793 115.4701,327.981743 115.509122,328.589455 C115.671829,331.132817 118.007165,333.11265 120.537306,332.81328 C121.555213,332.692715 122.507956,332.197078 123.241283,331.43983 C123.774807,330.889081 124.135795,330.291007 124.610859,329.302883 C124.658043,329.204742 124.711816,329.091674 124.808669,328.887886 C124.880433,328.737346 124.934172,328.626244 124.986671,328.520544 C125.010251,328.473107 125.03681,328.412167 125.06568,328.340698 Z" id="path-7"></path>
        <mask id="mask-8" maskContentUnits="userSpaceOnUse" maskUnits="objectBoundingBox" x="0" y="0" width="138.528586" height="280.934941" fill="white">
            <use xlink:href="#path-7"></use>
        </mask>
        <path d="M86.6687012,277.536865 C86.6687012,277.536865 153.777358,293.356046 168.825073,303.814575 C175.902583,293.356046 175.840454,293.341797 175.840454,293.341797 C175.840454,293.341797 126.170254,270.644281 86.5042725,264.550171 C86.2634277,276.655029 86.6687012,277.536865 86.6687012,277.536865 Z" id="path-9"></path>
        <mask id="mask-10" maskContentUnits="userSpaceOnUse" maskUnits="objectBoundingBox" x="0" y="0" width="89.4126282" height="39.2644043" fill="white">
            <use xlink:href="#path-9"></use>
        </mask>
        <path d="M148.011945,194.919248 C138.662685,185.517682 138.662685,170.36723 148.011945,161.039782 C157.355507,151.661022 172.502714,151.661022 181.846276,160.994171 C191.241115,170.36723 191.241115,185.479673 181.846276,194.919248 C172.502714,204.244796 157.355507,204.244796 148.011945,194.919248 Z" id="path-11"></path>
        <mask id="mask-12" maskContentUnits="userSpaceOnUse" maskUnits="objectBoundingBox" x="0" y="0" width="47.8924051" height="47.9134088" fill="white">
            <use xlink:href="#path-11"></use>
        </mask>
    </defs>
    <g id="Page-1" stroke="none" stroke-width="1" fill="none" fill-rule="evenodd">
        <g id="Illustration-Copy-2">
            <rect id="Background" fill="#FFFFFF" x="0" y="0" width="512" height="512"></rect>
            <path d="M179.633646,445.473047 C177.142969,447.072405 174.17981,448 171,448 C164.284796,448 158.535815,443.863107 156.162558,437.998823 C156.108466,437.999607 156.054279,438 156,438 C149.924868,438 145,433.075132 145,427 C145,420.924868 149.924868,416 156,416 C157.04552,416 158.056971,416.145864 159.015114,416.418352 C159.317524,410.61361 164.119979,406 170,406 C171.440545,406 172.816414,406.276909 174.077283,406.780401 C174.026263,406.360738 174,405.933436 174,405.5 C174,399.70101 178.70101,395 184.5,395 C187.363778,395 189.959782,396.146476 191.854072,398.00549 C195.479272,396.086651 199.612736,395 204,395 C211.616995,395 218.468969,398.275441 223.224262,403.494661 C224.088973,403.174749 225.024079,403 226,403 C230.418278,403 234,406.581722 234,411 C234,413.671303 232.690722,416.036807 230.678871,417.489806 C234.923917,418.836666 238,422.809104 238,427.5 C238,430.099726 237.055196,432.478782 235.490222,434.312532 C239.808251,435.419235 243,439.336881 243,444 C243,449.522847 238.522847,454 233,454 C231.937805,454 230.91429,453.834391 229.953867,453.527584 C227.221814,455.701247 223.762577,457 220,457 C214.94191,457 210.432011,454.652915 207.5,450.98844 C204.567989,454.652915 200.05809,457 195,457 C187.716037,457 181.568901,452.132664 179.633646,445.473047 L179.633646,445.473047 Z" id="Combined-Shape" fill="#FFFFFF"></path>
            <g id="Group" transform="translate(92.500000, 57.500000)">
                <path d="M47.8023653,272.642019 C-14.4910838,210.000058 -14.4910838,109.053684 47.8023653,46.9055646 C110.057854,-15.5844452 210.982605,-15.5844452 273.238093,46.6016619 C335.835228,109.053684 335.835228,209.746806 273.238093,272.642019 C210.982605,334.777476 110.057854,334.777476 47.8023653,272.642019 Z" id="Stroke-19-Copy-2" fill="#2491BB"></path>
                <g id="Group-Copy" transform="translate(0.000000, 2.083770)" stroke="#FFFFFF" stroke-width="2" stroke-linecap="round" opacity="0.699999988" stroke-linejoin="round">
                    <path d="M315.854058,151.633837 C285.030239,178.454524 245.531641,206.599431 219.843375,218.958807" id="Stroke-29" transform="translate(267.848717, 185.296322) rotate(-35.000000) translate(-267.848717, -185.296322) "></path>
                    <path d="M308.366927,80.1972544 C286.938174,98.8430261 259.478705,118.409396 241.620194,127.001648" id="Stroke-29-Copy-3" transform="translate(274.993561, 103.599451) rotate(-38.000000) translate(-274.993561, -103.599451) "></path>
                    <path d="M173.239773,9.81036657 C160.08844,21.2537178 143.235914,33.2620621 132.275723,38.5353305" id="Stroke-29-Copy-4" transform="translate(152.757748, 24.172849) scale(-1, 1) rotate(-70.000000) translate(-152.757748, -24.172849) "></path>
                    <path d="M181.817388,6.41593942 C175.863566,11.596531 168.234153,17.0329042 163.272296,19.4201988" id="Stroke-29-Copy-5" transform="translate(172.544842, 12.918069) scale(-1, 1) rotate(-72.000000) translate(-172.544842, -12.918069) "></path>
                    <path d="M93.8786586,99.3767239 C62.8358368,126.387972 23.0566024,154.732847 -2.81417851,167.180037" id="Stroke-29-Copy-6" transform="translate(45.532240, 133.278380) scale(-1, 1) rotate(-75.000000) translate(-45.532240, -133.278380) "></path>
                    <path d="M84.1432206,168.556067 C58.3295501,191.017281 25.2511125,214.587473 3.7382546,224.937938" id="Stroke-29-Copy-7" transform="translate(43.940738, 196.747003) scale(-1, 1) rotate(-73.000000) translate(-43.940738, -196.747003) "></path>
                </g>
                <use id="Stroke-19-Copy-3" stroke-opacity="0.4" stroke="#203A44" mask="url(#mask-2)" stroke-width="4" stroke-linecap="round" stroke-linejoin="round" xlink:href="#path-1"></use>
                <use id="Path-Copy-7" stroke-opacity="0.4" stroke="#203A44" mask="url(#mask-4)" stroke-width="4" fill="#56D882" xlink:href="#path-3"></use>
                <path d="M211.13321,270.504424 C213.434986,274.876638 215.293853,278.856317 216.431145,281.963058 C202.24402,307.787554 183.613152,335.150257 169.637571,350.556294 C168.825761,346.452152 167.623344,341.742508 166.155108,336.85738 C179.840769,321.307698 197.493777,295.244515 211.13321,270.504424 Z" id="Combined-Shape" fill="#203A44" opacity="0.2"></path>
                <use id="Path-Copy-6" stroke-opacity="0.4" stroke="#203A44" mask="url(#mask-6)" stroke-width="4" fill="#56D882" xlink:href="#path-5"></use>
                <path d="M75.1982835,305.868194 C79.7392855,302.59029 84.6980672,299.267697 89.7033954,296.177996 C89.7727328,296.135195 89.8436014,296.096969 89.9156494,296.063232 C87.4297936,274.180228 88.0046725,249.529166 92.2564897,223.302029 C92.319815,222.91141 92.3839724,222.520443 92.4489645,222.129131 C92.5732508,221.380814 92.7006511,220.633178 92.8311768,219.88623 C92.2337586,220.158216 91.6325909,220.435666 91.0287708,220.717986 C81.8018378,250.621821 76.6662801,279.407798 75.1982835,305.868194 Z" id="Combined-Shape" fill="#203A44" opacity="0.200000003"></path>
                <use id="Combined-Shape" stroke="#226E8B" mask="url(#mask-8)" stroke-width="4" fill="#FFFFFF" fill-rule="nonzero" xlink:href="#path-7"></use>
                <path d="M133.476051,331.591021 C135.976126,332.612188 138.450801,333.672003 140.886777,334.762606 C143.554199,335.830811 145.350229,334.161509 145.799805,333.668701 C146.543076,332.853955 153.653271,324.641269 156.958369,320.415553 C166.39315,308.352762 175.825093,294.573378 184.628566,279.30374 C217.294721,222.644243 232.690216,161.707356 221.203582,99.974803 C219.132764,88.9249159 214.941088,77.2156244 208.954657,64.9233625 C212.51863,75.0554888 214.960306,84.7469186 216.128633,93.9524023 C224.539607,160.891791 205.177509,225.518558 168.184391,284.6137 C158.214809,300.53974 147.678781,314.830785 137.236458,327.27762 C136.223209,328.485372 134.890632,330.005904 133.476051,331.591021 L133.476051,331.591021 Z" id="Combined-Shape" fill="#203A44" fill-rule="nonzero" opacity="0.2"></path>
                <use id="Path-4-Copy" stroke-opacity="0.4" stroke="#203A44" mask="url(#mask-10)" stroke-width="4" fill="#73D4FA" xlink:href="#path-9"></use>
                <use id="Stroke-19-Copy-4" stroke-opacity="0.4" stroke="#203A44" mask="url(#mask-12)" stroke-width="4" stroke-linecap="round" stroke-linejoin="round" fill="#73D4FA" xlink:href="#path-11"></use>
                <path d="M151.006329,172.479017 C152.263718,170.645567 157.125732,164.531263 166.227702,164.61873 C167.289349,164.630504 168.322797,164.749931 169.333021,164.933276" id="Stroke-13-Copy" stroke="#FFFFFF" stroke-width="2" stroke-linecap="round" stroke-linejoin="round"></path>
                <path d="M162.337499,381.394535 C162.27554,375.803974 157.665126,371.247691 151.957712,371.186663 C146.712612,371.133664 143.913318,374.644427 143.186487,375.697174 C142.484281,374.62917 139.749329,371.070226 134.508201,371.020439 C128.726118,370.964229 123.975104,375.545405 123.924266,381.222691" id="Stroke-17-Copy-7" stroke="#226E8B" stroke-width="2" stroke-linecap="round" stroke-linejoin="round" transform="translate(143.130882, 376.207231) rotate(432.000000) translate(-143.130882, -376.207231) "></path>
                <path d="M140.086182,380.553132 C140.036551,376.074985 136.343521,372.425316 131.771774,372.37643 C127.570348,372.333977 125.32806,375.146166 124.745854,375.989436 C124.183373,375.133944 121.992625,372.283162 117.794381,372.243282 C113.162822,372.198256 109.357169,375.867866 109.316446,380.415481" id="Stroke-17-Copy-8" stroke="#226E8B" stroke-width="2" stroke-linecap="round" stroke-linejoin="round" transform="translate(124.701314, 376.398002) rotate(439.000000) translate(-124.701314, -376.398002) "></path>
                <path d="M85.2535184,364.77572 C85.1931771,359.33116 80.703167,354.893868 75.1448067,354.834433 C70.0366853,354.782818 67.3104972,358.201895 66.6026476,359.227149 C65.9187797,358.187037 63.2552537,354.721037 58.1510003,354.672551 C52.5199211,354.617808 47.8929827,359.079344 47.8434719,364.608363" id="Stroke-17-Copy-9" stroke="#226E8B" stroke-width="2" stroke-linecap="round" stroke-linejoin="round" transform="translate(66.548495, 359.723886) rotate(320.000000) translate(-66.548495, -359.723886) "></path>
                <path d="M97.788683,348.180596 C97.7283417,342.736037 93.2383316,338.298744 87.6799714,338.239309 C82.5718499,338.187694 79.8456618,341.606772 79.1378122,342.632025" id="Stroke-17-Copy-10" stroke="#226E8B" stroke-width="2" stroke-linecap="round" stroke-linejoin="round" transform="translate(88.463248, 343.209664) rotate(320.000000) translate(-88.463248, -343.209664) "></path>
                <path d="M144.562759,355.448985 C144.521502,351.726372 141.451544,348.692459 137.651123,348.651822 C134.158543,348.616531 132.294565,350.954259 131.810586,351.655257" id="Stroke-17-Copy-11" stroke="#226E8B" stroke-width="2" stroke-linecap="round" stroke-linejoin="round" transform="translate(138.186673, 352.050206) rotate(423.000000) translate(-138.186673, -352.050206) "></path>
            </g>
        </g>
    </g>
</svg>

<svg width="512" height="512" viewBox="0 0 512 512" xmlns="http://www.w3.org/2000/svg" xmlns:xlink="http://www.w3.org/1999/xlink"><title>Illustration Copy 2</title><defs><path d="M47.802 272.642C-14.49 210-14.49 109.054 47.802 46.906c62.256-62.49 163.18-62.49 225.436-.304 62.597 62.452 62.597 163.145 0 226.04-62.255 62.135-163.18 62.135-225.436 0z" id="a"/><mask id="g" x="0" y="0" width="319.104" height="319.244" fill="#fff"><use xlink:href="#a"/></mask><path d="M183.277 277.927c5.483-9.51 10.48-19.14 14.943-28.875 7.683 11.325 15.304 24.97 18.211 32.911-14.187 25.825-32.818 53.187-46.793 68.593-2.008-10.15-6.405-24.002-11.303-35.054 8.52-11.197 16.988-23.778 24.942-37.575z" id="b"/><mask id="h" x="0" y="0" width="58.096" height="101.504" fill="#fff"><use xlink:href="#b"/></mask><path d="M92.449 222.13c.124-.75.252-1.497.382-2.244-11.635 5.297-24.692 12.667-31.067 17.732-2.972 27.335-3.117 58.931-.471 79.382 6.607-6.097 17.396-14.023 28.41-20.822.07-.043.14-.081.213-.115-2.486-21.883-1.911-46.534 2.34-72.761l.193-1.173z" id="c"/><mask id="i" x="0" y="0" width="33.416" height="97.114" fill="#fff"><use xlink:href="#c"/></mask><path d="M125.066 328.34a239.723 239.723 0 0 1 15.82 6.423c2.668 1.068 4.464-.601 4.914-1.094.743-.815 7.853-9.028 11.158-13.253 9.435-12.063 18.867-25.843 27.67-41.112 32.667-56.66 48.062-117.597 36.576-179.33-2.6-13.875-8.546-28.792-17.19-44.596a2.079 2.079 0 0 0-1.49-1.056 2.072 2.072 0 0 0-1.413-.038c-12.041 3.984-22.557 12.345-38.118 28.124-41.21 41.897-64.29 89.978-72.804 141.24-5.854 35.247-4.312 67.49 1.087 94.42a2.083 2.083 0 0 0 2.054 1.675c7.297 1.176 15.018 3.1 22.785 5.552-.14.54-.272 1.046-.36 1.375-.198.738-.285 1.312-.246 1.92.163 2.543 2.498 4.523 5.028 4.223 1.018-.12 1.971-.616 2.704-1.373.534-.55.895-1.149 1.37-2.137l.198-.415c.071-.15.125-.262.178-.367.023-.048.05-.109.079-.18z" id="d"/><mask id="j" x="0" y="0" width="138.529" height="280.935" fill="#fff"><use xlink:href="#d"/></mask><path d="M86.669 277.537s67.108 15.819 82.156 26.278c7.078-10.459 7.015-10.473 7.015-10.473s-49.67-22.698-89.336-28.792c-.24 12.105.165 12.987.165 12.987z" id="e"/><mask id="k" x="0" y="0" width="89.413" height="39.264" fill="#fff"><use xlink:href="#e"/></mask><path d="M148.012 194.92c-9.35-9.402-9.35-24.553 0-33.88 9.344-9.379 24.49-9.379 33.834-.046 9.395 9.373 9.395 24.486 0 33.925-9.343 9.326-24.49 9.326-33.834 0z" id="f"/><mask id="l" x="0" y="0" width="47.892" height="47.913" fill="#fff"><use xlink:href="#f"/></mask></defs><g fill="none" fill-rule="evenodd"><path fill="#FFF" d="M0 0h512v512H0z"/><path d="M179.634 445.473A15.925 15.925 0 0 1 171 448c-6.715 0-12.464-4.137-14.837-10.001L156 438c-6.075 0-11-4.925-11-11s4.925-11 11-11c1.046 0 2.057.146 3.015.418C159.318 410.614 164.12 406 170 406c1.44 0 2.816.277 4.077.78-.05-.42-.077-.847-.077-1.28 0-5.799 4.701-10.5 10.5-10.5 2.864 0 5.46 1.146 7.354 3.005A25.886 25.886 0 0 1 204 395c7.617 0 14.469 3.275 19.224 8.495a8 8 0 0 1 7.455 13.995c4.245 1.347 7.321 5.32 7.321 10.01 0 2.6-.945 4.979-2.51 6.813 4.318 1.106 7.51 5.024 7.51 9.687 0 5.523-4.477 10-10 10a9.994 9.994 0 0 1-3.046-.472A15.932 15.932 0 0 1 220 457a15.97 15.97 0 0 1-12.5-6.012A15.97 15.97 0 0 1 195 457c-7.284 0-13.431-4.867-15.366-11.527z" fill="#FFF"/><g transform="translate(92.5 57.5)"><path d="M47.802 272.642C-14.49 210-14.49 109.054 47.802 46.906c62.256-62.49 163.18-62.49 225.436-.304 62.597 62.452 62.597 163.145 0 226.04-62.255 62.135-163.18 62.135-225.436 0z" fill="#2491BB"/><g stroke="#FFF" stroke-width="2" stroke-linecap="round" opacity=".7" stroke-linejoin="round"><path d="M287.864 132.27c-9.865 39.65-26.077 85.361-40.03 110.22M286.884 66.695c-5.406 27.886-14.998 60.21-23.781 77.976M159.249 2.098c-6.255 16.272-11.776 36.215-12.982 48.318M175.863 4.174c-3.087 7.263-5.9 16.2-6.637 21.656M65.766 79.889c-18.057 36.976-35.14 82.736-40.467 110.947M59.146 152.143c-13.933 31.252-26.802 69.777-30.41 93.376"/></g><use stroke-opacity=".4" stroke="#203A44" mask="url(#g)" stroke-width="4" stroke-linecap="round" stroke-linejoin="round" xlink:href="#a"/><use stroke-opacity=".4" stroke="#203A44" mask="url(#h)" stroke-width="4" fill="#56D882" xlink:href="#b"/><path d="M211.133 270.504c2.302 4.373 4.16 8.352 5.298 11.46-14.187 25.824-32.818 53.186-46.793 68.592-.812-4.104-2.015-8.813-3.483-13.699 13.686-15.55 31.339-41.612 44.978-66.353z" fill="#203A44" opacity=".2"/><use stroke-opacity=".4" stroke="#203A44" mask="url(#i)" stroke-width="4" fill="#56D882" xlink:href="#c"/><path d="M75.198 305.868c4.541-3.278 9.5-6.6 14.505-9.69.07-.043.14-.081.213-.115-2.486-21.883-1.911-46.534 2.34-72.761a307.268 307.268 0 0 1 .575-3.416c-.597.272-1.198.55-1.802.832-9.227 29.904-14.363 58.69-15.83 85.15z" fill="#203A44" opacity=".2"/><use stroke="#226E8B" mask="url(#j)" stroke-width="4" fill="#FFF" fill-rule="nonzero" xlink:href="#d"/><path d="M133.476 331.591c2.5 1.021 4.975 2.081 7.41 3.172 2.668 1.068 4.464-.601 4.914-1.094.743-.815 7.853-9.028 11.158-13.253 9.435-12.063 18.867-25.843 27.67-41.112 32.667-56.66 48.062-117.597 36.576-179.33-2.071-11.05-6.263-22.758-12.25-35.05 3.565 10.131 6.006 19.823 7.175 29.028 8.41 66.94-10.951 131.567-47.945 190.662-9.97 15.926-20.505 30.217-30.948 42.664a199.138 199.138 0 0 1-3.76 4.313z" fill="#203A44" fill-rule="nonzero" opacity=".2"/><use stroke-opacity=".4" stroke="#203A44" mask="url(#k)" stroke-width="4" fill="#73D4FA" xlink:href="#e"/><use stroke-opacity=".4" stroke="#203A44" mask="url(#l)" stroke-width="4" stroke-linecap="round" stroke-linejoin="round" fill="#73D4FA" xlink:href="#f"/><path d="M151.006 172.479c1.258-1.833 6.12-7.948 15.222-7.86 1.061.012 2.095.13 3.105.314" stroke="#FFF" stroke-width="2" stroke-linecap="round" stroke-linejoin="round"/><path d="M144.133 396.077c5.297-1.787 8.206-7.58 6.5-13.026-1.57-5.005-5.774-6.583-7-6.949.799-.997 3.339-4.698 1.766-9.698-1.733-5.517-7.558-8.62-12.973-6.913M123.558 392.293c4.386-.903 7.264-5.225 6.44-9.722-.76-4.132-3.948-5.797-4.887-6.207.732-.716 3.113-3.41 2.35-7.539-.839-4.555-5.167-7.59-9.639-6.763M84.125 351.57c-3.546-4.132-9.838-4.645-14.134-1.117-3.946 3.244-3.837 7.615-3.72 8.856-1.193-.358-5.461-1.3-9.402 1.943-4.35 3.578-5.026 9.97-1.51 14.237M98.802 341.023c-3.546-4.132-9.838-4.645-14.134-1.117-3.946 3.244-3.837 7.615-3.72 8.855" stroke="#226E8B" stroke-width="2" stroke-linecap="round" stroke-linejoin="round"/><path d="M138.053 359.274c3.298-1.726 4.608-5.84 2.919-9.244-1.555-3.128-4.484-3.727-5.328-3.84" stroke="#226E8B" stroke-width="2" stroke-linecap="round" stroke-linejoin="round"/></g></g></svg>
